packages/gestalt/src/icons/add-pin.svg

<svg width="24" height="24" xmlns="http://www.w3.org/2000/svg"><path fill="#B5B5B5" d="M21.5 8.69c1.49.87 2.5 2.46 2.5 4.31h-4v7.96L19 23l-1-2.04V13h-4c0-1.85 1.01-3.44 2.5-4.31V2.93c-.86-.22-1.5-1-1.5-1.93h8c0 .93-.64 1.71-1.5 1.93v5.76zm-11.25.81a1.25 1.25 0 0 1 0 2.5H7v3.25a1.25 1.25 0 0 1-2.5 0V12H1.25a1.25 1.25 0 0 1 0-2.5H4.5V6.25a1.25 1.25 0 0 1 2.5 0V9.5h3.25z"/></svg>

<svg width="24" height="24" viewBox="0 0 24 24" xmlns="http://www.w3.org/2000/svg"><path fill="#aeaeae" d="M21.50,8.69 C22.99,9.56 24.00,11.15 24.00,13.00 L20.00,13.00 L20.00,20.96 L19.00,23.00 L18.00,20.96 L18.00,13.00 L14.00,13.00 C14.00,11.15 15.01,9.56 16.50,8.69 L16.50,2.93 C15.64,2.71 15.00,1.93 15.00,1.00 L23.00,1.00 C23.00,1.93 22.36,2.71 21.50,2.93 L21.50,8.69 Z M10.25,9.50 C10.94,9.50 11.50,10.06 11.50,10.75 C11.50,11.44 10.94,12.00 10.25,12.00 L7.00,12.00 L7.00,15.25 C7.00,15.94 6.44,16.50 5.75,16.50 C5.06,16.50 4.50,15.94 4.50,15.25 L4.50,12.00 L1.25,12.00 C0.56,12.00 0.00,11.44 0.00,10.75 C0.00,10.06 0.56,9.50 1.25,9.50 L4.50,9.50 L4.50,6.25 C4.50,5.56 5.06,5.00 5.75,5.00 C6.44,5.00 7.00,5.56 7.00,6.25 L7.00,9.50 L10.25,9.50 Z"/></svg>
